X:1
T:Christ’s Natal Day
T:Asa Hull
T:Christ’s Natal Day
T:Public Domain
T:Public Domain
T:Public Domain
C:Asa Hull
Z:Public Domain
%%score ( 1 2 ) ( 3 4 )
L:1/8
M:4/4
K:Bb
V:1 treble 
V:2 treble 
V:3 bass 
V:4 bass 
V:1
 [DF]2 [B,D]>[CE] [DF]2 [DB]2 | [DB]4 [CA]2 z2 | [Ec]2 [EA]>[EG] [DF]2 [CE]2 | %3
w: 1.~Once o’er the hills of|Ju- dah,|Burst forth a glor- ious|
w: 2.~Strange was His throne, O|child- ren!|On- ly a man- ger|
w: 3.~Still through the air a-|round us|E- cho ce- les- tial|
 ([B,D]3 [CE] [DF]2) z2 | [Fd]2 [Ec]>[DB] [GB]2 ([FA][EG]) | (G2 B2) [DF]2 z2 | %6
w: light; * *|Her- ald- ing the Mes- *|si- * ah,|
w: cold! * *|But prince- ly gifts were *|brought * Him,|
w: strains; * *|Still o’er earth’s sin- ful *|dark- * ness|
 [DF]2 [CE]>[B,D] [A,C]2 [C=E]2 | [CF]6 z2 | [DF]2 [B,D]>[CE] [DF]2 [DB]2 | [DB]4 [CA]2 z2 | %10
w: ing in splen- dor bright!|And|thro’ the air came steal-|ing, Sweet-|
w: frank- in- cense and gold.|Myrrh|was the bit- ter tok-|en Of|
w: Light in grand- eur reigns;|What|are the gifts we’ll bring|Him? No|
 [Ec]2 [EA]>[EG] [DF]2 [CE]2 | ([B,D]3 [CE] [DF]2) z2 | [Fd]2 [Ec]>[DB] [GB]2 ([FA][EG]) | %13
w: ly on wings of morn;|From * *|Heav- en’s tow- ers peal- *|
w: His great sa- cri- fice;|Frank- * *|in- cense, hom- age paid *|
w: type of sor- row now!|Hearts’ * *|prayers shall be our in- *|
 (G2 B2) [DF]2 z2 | F2 [FA]>[FB] [Fc]2 [Fd]2 | [DB]6 z2 ||"^Refrain" [DB]2 [DB]2 [Fd]2 [Fd]2 | %17
w: ing, * “Je-|the Lord is born!” *|||
w: Him; * And|the king- ly price. Glo-|glo-|ry, glo- ry let|
w: cense * And|shall crown His brow. *|||
 [Ff]>[Ff] [Ff][Ff] [Fd]2 z2 | [Fe]2 [Fc]2 [FA]2 F2 | [FB]2 [Fd]2 [Fc]2 z2 | %20
w: |||
w: us sing! Glo- ry to|our heav’n- ly King!|a- loud His|
w: |||
 [Fd]>[Fd] [Fd][Fd] [GB]2 [GB]2 | [Ge]>[Ge] [Ge][Ge] [Ac]2 z2 | [Ff]2 [Ff]>[Ff] [Ge]2 [Gc]2 | %23
w: |||
w: prais- es, sing a joy- ful|lay, This is our Sav-|ior’s na- tal day! *|
w: |||
 [FB]2 [EA]2 [DB]2 z2 |] %24
w: |
w: |
w: |
V:2
 x8 | x8 | x8 | x8 | x8 | E4 x4 | x8 | x8 | x8 | x8 | x8 | x8 | x8 | E4 x4 | F2 x6 | x8 || x8 | %17
w: |||||Shin-||||||||sus||||
w: |||||Myrrh,||||||||gold,|ry,|||
w: |||||That||||||||love||||
 x8 | x6 F2 | x8 | x8 | x8 | x8 | x8 |] %24
w: |||||||
w: |Sound||||||
w: |||||||
V:3
 [B,,B,]2 [B,,F,]>[B,,F,] [B,,B,]2 [B,,F,]2 | F,4 F,2 z2 | %2
 [F,A,]2 [F,C]>[F,B,] [F,B,]2 [F,,F,A,]2 | [B,,B,]6 z2 | [B,,B,]2 [B,,B,]>[B,,B,] [E,B,]2 [E,B,]2 | %5
 [B,,B,]4 [B,,B,]2 z2 | [F,B,]2 F,>F, F,2 [C,B,]2 | [F,,F,A,]6 z2 | %8
 [B,,B,]2 [B,,F,]>[B,,F,] [B,,B,]2 [B,,F,]2 | F,4 F,2 z2 | %10
 [F,A,]2 [F,C]>[F,B,] [F,B,]2 [F,,F,A,]2 | [B,,B,]6 z2 | [B,,B,]2 [B,,B,]>[B,,B,] [E,B,]2 [E,B,]2 | %13
 [B,,B,]4 [B,,B,]2 z2 | [F,A,]2 [F,C]>[F,D] [F,E]2 [F,A,]2 | [B,,B,]6 z2 || %16
 [B,,B,]2 [B,,B,]2 [B,,B,]2 [B,,B,]2 | [B,D]>[B,D] [B,D][B,D] B,2 z2 | %18
 [F,A,]2 [F,A,]2 [F,C]2 (F,E,) | [D,B,]2 [B,,B,]2 [F,A,]2 z2 | %20
 [B,,B,]>[B,,B,] [B,,B,][B,,B,] [G,B,]2 [G,D]2 | [C,C]>[C,C] [C,C][C,C] [F,C]2 E,2 | %22
 [D,B,]2 [D,B,]>[D,B,] [E,B,]2 [E,E]2 | [F,D]2 [F,C]2 [B,,B,]2 z2 |] %24
V:4
 x8 | F,4 F,2 x2 | x8 | x8 | x8 | x8 | x2 F,>F, F,2 x2 | x8 | x8 | F,4 F,2 x2 | x8 | x8 | x8 | x8 | %14
 x8 | x8 || x8 | x4 B,2 x2 | x6 A,2 | x8 | x8 | x8 | x8 | x8 |] %24

